packages/elvis-assets-icons/icons/svg/src/electric_home-color.svg

<svg width="24" height="24" viewBox="0 0 24 24" fill="none" xmlns="http://www.w3.org/2000/svg">
<path d="M20.54 11.605L22.175 13.22C22.315 13.355 22.495 13.425 22.675 13.425C22.86 13.425 23.04 13.355 23.18 13.215C23.455 12.935 23.455 12.485 23.175 12.21L13.555 2.71498C13.185 2.31998 12.68 2.09498 12.145 2.05498C12.1 2.04498 12.05 2.03998 12 2.03998C11.95 2.03998 11.9 2.04498 11.855 2.05498C11.32 2.08998 10.815 2.31998 10.46 2.69498L3.66998 9.39998L0.824979 12.205C0.544979 12.48 0.544979 12.93 0.819979 13.21C0.959979 13.35 1.14498 13.42 1.32498 13.42C1.50498 13.42 1.68498 13.35 1.82498 13.215L3.45998 11.6V19.825C3.45998 21 4.41998 21.96 5.59498 21.96H18.405C19.58 21.96 20.54 21 20.54 19.825V11.605ZM18.405 20.54H5.59498C5.20498 20.54 4.88498 20.22 4.88498 19.83V10.2L11.48 3.68498C11.615 3.53998 11.805 3.45998 12 3.45998C12.195 3.45998 12.385 3.53998 12.54 3.70498L19.115 10.2V19.825C19.115 20.22 18.795 20.54 18.405 20.54Z" fill="black"/>
<g clip-path="url(#clip0)">
<path fill-rule="evenodd" clip-rule="evenodd" d="M12.765 12.0147L13.4767 7L9.38541 14.4853H11.735L11.0232 19.5L15.1146 12.0147H12.765Z" fill="#29D305"/>
</g>
<defs>
<clipPath id="clip0">
<rect x="6" y="7" width="12.5" height="12.5" fill="white"/>
</clipPath>
</defs>
</svg>

<svg width="24" height="24" fill="none" xmlns="http://www.w3.org/2000/svg"><path d="M20.54 11.605l1.635 1.615a.72.72 0 00.5.205.71.71 0 00.5-1.215l-9.62-9.495a2.137 2.137 0 00-1.41-.66.679.679 0 00-.29 0 2.116 2.116 0 00-1.395.64L3.67 9.4.825 12.205a.71.71 0 001 1.01L3.46 11.6v8.225a2.14 2.14 0 002.135 2.135h12.81a2.14 2.14 0 002.135-2.135v-8.22zm-2.135 8.935H5.595c-.39 0-.71-.32-.71-.71V10.2l6.595-6.515A.711.711 0 0112 3.46c.195 0 .385.08.54.245l6.575 6.495v9.625c0 .395-.32.715-.71.715z" fill="#000"/><g clip-path="url(#clip0)"><path fill-rule="evenodd" clip-rule="evenodd" d="M12.765 12.015L13.477 7l-4.092 7.485h2.35l-.712 5.015 4.092-7.485h-2.35z" fill="#29D305"/></g><defs><clipPath id="clip0"><path fill="#fff" d="M6 7h12.5v12.5H6z"/></clipPath></defs></svg>
